Origami/24x24/apps/mat.svg

<svg width="24" height="24" version="1" xmlns="http://www.w3.org/2000/svg">
 <rect x="10" y="7.5" width="4" height="15" rx="1.5" ry="1.5" style="opacity:.2"/>
 <rect x="10" y="7" width="4" height="15" rx="1.5" ry="1.5" style="fill:#b83229"/>
 <path d="m10.849218 12.491012c-2.3141082-0.044878-4.2530111-0.084504-4.8273657-0.161486-0.4211955-0.056456-0.6280431-0.111494-0.8613341-0.229185-0.385309-0.194379-0.6249394-0.46543-0.7978731-0.90249-0.1581114-0.399584-0.2224905-0.716955-0.2815733-1.3881001-0.0666757-0.7573919-0.071887-0.8945069-0.0788109-2.0745818-0.0081555-1.3877709 0.0082605-1.8425318 0.0995981-2.7636598 0.0478927-0.4829014 0.1177046-0.8038305 0.2488744-1.1441549 0.1194582-0.3099268 0.2285208-0.4809715 0.4268664-0.6694615 0.2492839-0.2368969 0.5230587-0.3809063 0.8686751-0.4569286 0.5158727-0.1134733 3.847178-0.2009627 6.3553761-0.2009627 2.508198 0 5.839444 0.087489 6.355316 0.2009627 0.373076 0.082063 0.646888 0.233642 0.914044 0.5060002 0.209095 0.2131659 0.31679 0.4068618 0.444949 0.8002981 0.132055 0.4053902 0.1827 0.764158 0.257736 1.8258307 0.03563 0.5041729 0.03562 2.8250477 0 3.3289722-0.04169 0.5895129-0.09286 1.1144885-0.12692 1.3023345-0.08758 0.482945-0.259595 0.935114-0.45353 1.192203-0.133058 0.176382-0.395719 0.386545-0.61536 0.492365-0.222406 0.107151-0.434303 0.160274-0.775905 0.194527-1.058533 0.106139-5.290529 0.183636-7.152749 0.147517z" style="opacity:.2"/>
 <path d="m10.849218 11.991014c-2.3141082-0.044878-4.2530111-0.084504-4.8273657-0.161486-0.4211955-0.056456-0.6280431-0.111494-0.8613341-0.229185-0.385309-0.194379-0.6249394-0.46543-0.7978731-0.90249-0.1581114-0.399584-0.2224905-0.7169549-0.2815733-1.3881013-0.0666757-0.7573919-0.071887-0.8945069-0.0788109-2.0745818-0.0081555-1.3877709 0.0082605-1.8425318 0.0995981-2.7636598 0.0478927-0.4829014 0.1177046-0.8038305 0.2488744-1.1441549 0.1194582-0.3099268 0.2285208-0.4809715 0.4268664-0.6694615 0.2492839-0.2368969 0.5230587-0.3809063 0.8686751-0.4569286 0.5158727-0.1134733 3.847178-0.2009627 6.3553761-0.2009627 2.508198 0 5.839444 0.087489 6.355316 0.2009627 0.373076 0.082063 0.646888 0.233642 0.914044 0.5060002 0.209095 0.2131659 0.31679 0.4068618 0.444949 0.8002981 0.132055 0.4053902 0.1827 0.764158 0.257736 1.8258307 0.03563 0.5041729 0.03562 2.8250477 0 3.3289722-0.04169 0.5895129-0.09286 1.1144893-0.12692 1.3023358-0.08758 0.4829449-0.259595 0.9351139-0.45353 1.1922029-0.133058 0.176382-0.395719 0.386545-0.61536 0.492365-0.222406 0.107151-0.434303 0.160274-0.775905 0.194527-1.058533 0.106139-5.290529 0.183636-7.152749 0.147517z" style="fill:#d54c41"/>
 <path d="m16.492188 4.4919042a0.50005 0.50005 0 0 0 -0.07422 0.00781h-0.917968a0.50005 0.50005 0 1 0 0 1h0.5v3.5a0.50005 0.50005 0 1 0 1 0v-3.5h0.5a0.50005 0.50005 0 1 0 0 -1h-0.908203a0.50005 0.50005 0 0 0 -0.09961 -0.00781zm-7.0058599 0.00586a0.50005 0.50005 0 0 0 -0.3867187 0.2011713l-1.0996094 1.4667968-1.0996094-1.4667968a0.50005 0.50005 0 0 0 -0.3867187 -0.1992188 0.50005 0.50005 0 0 0 -0.5136719 0.5v4a0.50005 0.50005 0 1 0 1 0v-2.4980469l0.5996094 0.7988281a0.50005 0.50005 0 0 0 0.8007812 0l0.5996094-0.7988281v2.4980469a0.50005 0.50005 0 1 0 1 0v-4a0.50005 0.50005 0 0 0 -0.5136719 -0.5019525zm3.5195309 0.00195a0.50005 0.50005 0 0 0 -0.474609 0.3242213l-1.5 4a0.50005 0.50005 0 1 0 0.935547 0.3515624l0.253906-0.6757812h1.556641l0.253906 0.6757812a0.50005 0.50005 0 1 0 0.935547 -0.3515624l-1.5-4a0.50005 0.50005 0 0 0 -0.460938 -0.3242188zm-0.005859 1.9238306 0.402344 1.0761719h-0.806641z" style="opacity:.2"/>
 <path d="m6.5000006 8.4998788v-3.9999993l1.4999998 2.0001205 1.4999999-2.0001205v3.9999993" style="fill:none;stroke-linecap:round;stroke-linejoin:round;stroke:#fefefe"/>
 <path d="m11.499533 8.4998788 1.5-3.9999993 1.5 3.9999993" style="fill:none;stroke-linecap:round;stroke-linejoin:round;stroke:#fefefe"/>
 <path d="m16.50005 8.4998788v-3.9999993" style="fill:none;stroke-linecap:round;stroke-linejoin:round;stroke:#fefefe"/>
 <path d="M 15.500121,4.4998795 H 17.5" style="fill:none;stroke-linecap:round;stroke-linejoin:round;stroke:#fefefe"/>
 <path d="m11.999533 7.5h2" style="fill:none;stroke:#fefefe"/>
 <path d="m12.001953 2c-2.508198 0-5.8395959 0.0876986-6.3554686 0.2011719-0.3456164 0.0760223-0.6198567 0.2201343-0.8691406 0.4570312-0.1983456 0.18849-0.3063231 0.3599951-0.4257813 0.6699219-0.1311698 0.3403244-0.2021073 0.6596767-0.25 1.1425781-0.0913376 0.921128-0.1077649 1.375901-0.0996094 2.7636719 5.422e-4 0.0923981 0.0014017 0.1070916 0.0019531 0.1875-0.0024429-1.092658 0.0154866-1.6225013 0.0976563-2.4511719 0.0478927-0.4829014 0.1188302-0.8022537 0.25-1.1425781 0.1194582-0.3099268 0.2274357-0.4814319 0.4257813-0.6699219 0.2492839-0.2368969 0.5235242-0.3810089 0.8691406-0.4570312 0.5158727-0.1134733 3.8472706-0.2011719 6.3554686-0.2011719s5.839597 0.0876982 6.355469 0.2011719c0.373076 0.082063 0.646906 0.2335012 0.914062 0.5058593 0.209095 0.2131659 0.317154 0.407345 0.445313 0.8007813 0.132055 0.4053902 0.182776 0.7644992 0.257812 1.8261719 0.015139 0.2142141 0.019212 0.8226363 0.021485 1.4140625 0.003079-0.8005292-9.93e-4 -1.6241037-0.021485-1.9140625-0.075036-1.0616727-0.125757-1.4207817-0.257812-1.8261719-0.128159-0.3934363-0.236218-0.5876154-0.445313-0.8007813-0.267156-0.2723581-0.540986-0.4237963-0.914062-0.5058593-0.515872-0.1134737-3.847271-0.2011719-6.355469-0.2011719z" style="fill:#ffffff;opacity:.2"/>
</svg>

<svg xmlns="http://www.w3.org/2000/svg" width="24" height="24" version="1">
 <rect style="opacity:0.2" width="4" height="15" x="10" y="7.5" rx="1.5" ry="1.5"/>
 <rect style="fill:#b83229" width="4" height="15" x="10" y="7" rx="1.5" ry="1.5"/>
 <path style="opacity:0.2" d="M 10.849218,12.491012 C 8.5351098,12.446134 6.5962069,12.406508 6.0218523,12.329526 5.6006568,12.27307 5.3938092,12.218032 5.1605182,12.100341 4.7752092,11.905962 4.5355788,11.634911 4.3626451,11.197851 4.2045337,10.798267 4.1401546,10.480896 4.0810718,9.8097509 4.0143961,9.052359 4.0091848,8.915244 4.0022609,7.7351691 3.9941054,6.3473982 4.0105214,5.8926373 4.101859,4.9715093 4.1497517,4.4886079 4.2195636,4.1676788 4.3507334,3.8273544 4.4701916,3.5174276 4.5792542,3.3463829 4.7775998,3.1578929 5.0268837,2.920996 5.3006585,2.7769866 5.6462749,2.7009643 6.1621476,2.587491 9.4934529,2.5000016 12.001651,2.5000016 c 2.508198,0 5.839444,0.087489 6.355316,0.2009627 0.373076,0.082063 0.646888,0.233642 0.914044,0.5060002 0.209095,0.2131659 0.31679,0.4068618 0.444949,0.8002981 0.132055,0.4053902 0.1827,0.764158 0.257736,1.8258307 0.03563,0.5041729 0.03562,2.8250477 0,3.3289722 -0.04169,0.5895129 -0.09286,1.1144885 -0.12692,1.3023345 -0.08758,0.482945 -0.259595,0.935114 -0.45353,1.192203 -0.133058,0.176382 -0.395719,0.386545 -0.61536,0.492365 -0.222406,0.107151 -0.434303,0.160274 -0.775905,0.194527 -1.058533,0.106139 -5.290529,0.183636 -7.152749,0.147517 z"/>
 <path style="fill:#d54c41" d="M 10.849218,11.991014 C 8.5351098,11.946136 6.5962069,11.90651 6.0218523,11.829528 5.6006568,11.773072 5.3938092,11.718034 5.1605182,11.600343 4.7752092,11.405964 4.5355788,11.134913 4.3626451,10.697853 4.2045337,10.298269 4.1401546,9.9808981 4.0810718,9.3097517 4.0143961,8.5523598 4.0091848,8.4152448 4.0022609,7.2351699 3.9941054,5.847399 4.0105214,5.3926381 4.101859,4.4715101 4.1497517,3.9886087 4.2195636,3.6676796 4.3507334,3.3273552 4.4701916,3.0174284 4.5792542,2.8463837 4.7775998,2.6578937 5.0268837,2.4209968 5.3006585,2.2769874 5.6462749,2.2009651 6.1621476,2.0874918 9.4934529,2.0000024 12.001651,2.0000024 c 2.508198,0 5.839444,0.087489 6.355316,0.2009627 0.373076,0.082063 0.646888,0.233642 0.914044,0.5060002 0.209095,0.2131659 0.31679,0.4068618 0.444949,0.8002981 0.132055,0.4053902 0.1827,0.764158 0.257736,1.8258307 0.03563,0.5041729 0.03562,2.8250477 0,3.3289722 -0.04169,0.5895129 -0.09286,1.1144893 -0.12692,1.3023358 -0.08758,0.4829449 -0.259595,0.9351139 -0.45353,1.1922029 -0.133058,0.176382 -0.395719,0.386545 -0.61536,0.492365 -0.222406,0.107151 -0.434303,0.160274 -0.775905,0.194527 -1.058533,0.106139 -5.290529,0.183636 -7.152749,0.147517 z"/>
 <path style="opacity:0.2" d="m 16.492188,4.4919042 a 0.50005,0.50005 0 0 0 -0.07422,0.00781 H 15.5 a 0.50005,0.50005 0 1 0 0,1 H 16 v 3.5 a 0.50005,0.50005 0 1 0 1,0 v -3.5 h 0.5 a 0.50005,0.50005 0 1 0 0,-1 h -0.908203 a 0.50005,0.50005 0 0 0 -0.09961,-0.00781 z m -7.0058599,0.00586 A 0.50005,0.50005 0 0 0 9.0996094,4.6989355 L 8,6.1657323 6.9003906,4.6989355 A 0.50005,0.50005 0 0 0 6.5136719,4.4997167 0.50005,0.50005 0 0 0 6,4.9997167 v 4 a 0.50005,0.50005 0 1 0 1,0 V 6.5016698 l 0.5996094,0.7988281 a 0.50005,0.50005 0 0 0 0.8007812,0 L 9,6.5016698 v 2.4980469 a 0.50005,0.50005 0 1 0 1,0 v -4 A 0.50005,0.50005 0 0 0 9.4863281,4.4977642 Z m 3.5195309,0.00195 A 0.50005,0.50005 0 0 0 12.53125,4.8239355 l -1.5,4 a 0.50005,0.50005 0 1 0 0.935547,0.3515624 l 0.253906,-0.6757812 h 1.556641 l 0.253906,0.6757812 a 0.50005,0.50005 0 1 0 0.935547,-0.3515624 l -1.5,-4 A 0.50005,0.50005 0 0 0 13.005859,4.4997167 Z M 13,6.4235448 13.402344,7.4997167 h -0.806641 z"/>
 <path style="fill:none;stroke:#fefefe;stroke-linecap:round;stroke-linejoin:round" d="M 6.5000006,8.4998788 V 4.4998795 L 8.0000004,6.5 9.5000003,4.4998795 v 3.9999993"/>
 <path style="fill:none;stroke:#fefefe;stroke-linecap:round;stroke-linejoin:round" d="m 11.499533,8.4998788 1.5,-3.9999993 1.5,3.9999993"/>
 <path style="fill:none;stroke:#fefefe;stroke-linecap:round;stroke-linejoin:round" d="m 16.50005,8.4998788 v -3.9999993 0"/>
 <path style="fill:none;stroke:#fefefe;stroke-linecap:round;stroke-linejoin:round" d="M 15.500121,4.4998795 H 17.5"/>
 <path style="fill:none;stroke:#fefefe" d="m 11.999533,7.5 h 2"/>
 <path style="fill:#ffffff;opacity:0.2" d="M 12.001953 2 C 9.493755 2 6.1623571 2.0876986 5.6464844 2.2011719 C 5.300868 2.2771942 5.0266277 2.4213062 4.7773438 2.6582031 C 4.5789982 2.8466931 4.4710207 3.0181982 4.3515625 3.328125 C 4.2203927 3.6684494 4.1494552 3.9878017 4.1015625 4.4707031 C 4.0102249 5.3918311 3.9937976 5.8466041 4.0019531 7.234375 C 4.0024953 7.3267731 4.0033548 7.3414666 4.0039062 7.421875 C 4.0014633 6.329217 4.0193928 5.7993737 4.1015625 4.9707031 C 4.1494552 4.4878017 4.2203927 4.1684494 4.3515625 3.828125 C 4.4710207 3.5181982 4.5789982 3.3466931 4.7773438 3.1582031 C 5.0266277 2.9213062 5.300868 2.7771942 5.6464844 2.7011719 C 6.1623571 2.5876986 9.493755 2.5 12.001953 2.5 C 14.510151 2.5 17.84155 2.5876982 18.357422 2.7011719 C 18.730498 2.7832349 19.004328 2.9346731 19.271484 3.2070312 C 19.480579 3.4201971 19.588638 3.6143762 19.716797 4.0078125 C 19.848852 4.4132027 19.899573 4.7723117 19.974609 5.8339844 C 19.989748 6.0481985 19.993821 6.6566207 19.996094 7.2480469 C 19.999173 6.4475177 19.995101 5.6239432 19.974609 5.3339844 C 19.899573 4.2723117 19.848852 3.9132027 19.716797 3.5078125 C 19.588638 3.1143762 19.480579 2.9201971 19.271484 2.7070312 C 19.004328 2.4346731 18.730498 2.2832349 18.357422 2.2011719 C 17.84155 2.0876982 14.510151 2 12.001953 2 z"/>
</svg>
